app/static/star_propofol.svg

<svg clip-rule="evenodd" fill-rule="evenodd" height="75" stroke-linecap="round" stroke-linejoin="round" stroke-miterlimit="10" width="124" xmlns="http://www.w3.org/2000/svg"><path d="m59.161 23.875-20.365 15.979 1.143 23.245 22.668 10.295 21.123-12.654-.059-24.19z" fill="none" stroke="#fff"/><path d="m59.161 23.875c-.057.632-1.015-17.063-.607-21.631" fill="none" stroke="#fff"/><path d="m83.671 36.55c-.031.346 13.648-11.183 18.08-14.889" fill="none" stroke="#fff"/><path d="m101.62 21.676-.494-20.181" fill="none" stroke="#fff"/><path d="m101.62 21.676 19.455 10.785" fill="none" stroke="#fff"/><path d="m38.425 39.426c-.579-1.473-12.468-7.08-18.279-10.663" fill="none" stroke="#fff"/><path d="m20.146 28.903c.011-5.662-.644-20.671-1.1-23.982" fill="none" stroke="#fff"/><path d="m20.018 28.717c-5.914 4.945-12.86 8.803-18.742 13.722" fill="none" stroke="#fff"/><g fill="#fff"><circle cx="20.146" cy="29.109" r="1.507"/><circle cx="59.133" cy="24.042" r="1.172"/><circle cx="101.85" cy="21.971" r="1.507"/><circle cx="121.529" cy="32.579" fill-opacity=".8" r="1.507"/><circle cx="101.277" cy="1.194" r="1.194"/><circle cx="58.471" cy="1.681" fill-opacity=".8" r="1.507"/><circle cx="38.818" cy="39.3" fill-opacity=".8" r="1.507"/><circle cx="83.526" cy="36.503" r="1.507"/><circle cx="18.824" cy="3.896" r="1.507"/><circle cx=".979" cy="42.692" r=".979"/><circle cx="39.623" cy="63.036" r="1.507"/><circle cx="62.37" cy="73.148" r="1.507"/><circle cx="83.871" cy="61.09" fill-opacity=".8" r="1.507"/></g></svg>

<?xml version="1.0" encoding="UTF-8" standalone="no"?><!DOCTYPE svg PUBLIC "-//W3C//DTD SVG 1.1//EN" "http://www.w3.org/Graphics/SVG/1.1/DTD/svg11.dtd"><svg width="124px" height="75px" version="1.1" xmlns="http://www.w3.org/2000/svg" xmlns:xlink="http://www.w3.org/1999/xlink" xml:space="preserve" xmlns:serif="http://www.serif.com/" style="fill-rule:evenodd;clip-rule:evenodd;stroke-linecap:round;stroke-linejoin:round;stroke-miterlimit:10;"><path d="M59.161,23.875L38.796,39.854L39.939,63.099L62.607,73.394L83.73,60.74L83.671,36.55L59.161,23.875Z" style="fill:none;fill-rule:nonzero;stroke:white;stroke-width:1px;"/><path d="M59.161,23.875C59.104,24.507 58.146,6.812 58.554,2.244" style="fill:none;fill-rule:nonzero;stroke:white;stroke-width:1px;"/><path d="M83.671,36.55C83.64,36.896 97.319,25.367 101.751,21.661" style="fill:none;fill-rule:nonzero;stroke:white;stroke-width:1px;"/><path d="M101.62,21.676L101.126,1.495" style="fill:none;fill-rule:nonzero;stroke:white;stroke-width:1px;"/><path d="M101.62,21.676L121.075,32.461" style="fill:none;fill-rule:nonzero;stroke:white;stroke-width:1px;"/><path d="M38.425,39.426C37.846,37.953 25.957,32.346 20.146,28.763" style="fill:none;fill-rule:nonzero;stroke:white;stroke-width:1px;"/><path d="M20.146,28.903C20.157,23.241 19.502,8.232 19.046,4.921" style="fill:none;fill-rule:nonzero;stroke:white;stroke-width:1px;"/><path d="M20.018,28.717C14.104,33.662 7.158,37.52 1.276,42.439" style="fill:none;fill-rule:nonzero;stroke:white;stroke-width:1px;"/><circle cx="20.146" cy="29.109" r="1.507" style="fill:white;"/><circle cx="59.133" cy="24.042" r="1.172" style="fill:white;"/><circle cx="101.85" cy="21.971" r="1.507" style="fill:white;"/><circle cx="121.529" cy="32.579" r="1.507" style="fill:white;fill-opacity:0.8;"/><circle cx="101.277" cy="1.194" r="1.194" style="fill:white;"/><circle cx="58.471" cy="1.681" r="1.507" style="fill:white;fill-opacity:0.8;"/><circle cx="38.818" cy="39.3" r="1.507" style="fill:white;fill-opacity:0.8;"/><circle cx="83.526" cy="36.503" r="1.507" style="fill:white;"/><circle cx="18.824" cy="3.896" r="1.507" style="fill:white;"/><circle cx="0.979" cy="42.692" r="0.979" style="fill:white;"/><circle cx="39.623" cy="63.036" r="1.507" style="fill:white;"/><circle cx="62.37" cy="73.148" r="1.507" style="fill:white;"/><circle cx="83.871" cy="61.09" r="1.507" style="fill:white;fill-opacity:0.8;"/></svg>
